Origami/16x16/apps/accessories-text-editor-symbolic.svg

<svg width="16" height="16" version="1.1" xmlns="http://www.w3.org/2000/svg">
 <path d="m1 11.88v3.12h3.12l7.88-7.8805-3.12-3.1195zm13.76-7.5105c0.305-0.3048 0.33-0.85 0-1.18l-1.95-1.95c-0.33-0.33003-0.876-0.30573-1.18 0l-1.63 1.64 3.12 3.1205z" style="fill:#5c5c5c"/>
</svg>

<svg xmlns="http://www.w3.org/2000/svg" width="16" height="16" version="1.1">
 <path style="fill:#5c5c5c" d="M 1,11.88 V 15 H 4.12 L 12,7.1195 8.88,4 Z M 14.76,4.3695 C 15.065,4.0647 15.09,3.5195 14.76,3.1895 L 12.81,1.2395 C 12.48,0.90947 11.934,0.93377 11.63,1.2395 L 10,2.8795 13.12,6 Z"/>
</svg>
